logos/curl.svg

<?xml version="1.0" encoding="UTF-8"?>
<svg width="512px" height="154px" viewBox="0 0 512 154" version="1.1" xmlns="http://www.w3.org/2000/svg" xmlns:xlink="http://www.w3.org/1999/xlink" preserveAspectRatio="xMidYMid">
    <title>curl</title>
    <g>
				<path d="M498.445465,20.9585215 C494.352866,20.9585215 491.041478,17.6412982 491.041478,13.5545345 C491.041478,9.46193528 494.352866,6.15054747 498.445465,6.15054747 C502.532229,6.15054747 505.849453,9.46193528 505.849453,13.5545345 C505.849453,17.6412982 502.532229,20.9585215 498.445465,20.9585215 M424.912836,147.461685 C420.820237,147.461685 417.508849,144.144476 417.508849,140.057713 C417.508849,135.965113 420.820237,132.653726 424.912836,132.653726 C428.9996,132.653726 432.310988,135.965113 432.310988,140.057713 C432.310988,144.144476 428.9996,147.461685 424.912836,147.461685 M498.445465,0 C490.959856,0 484.890931,6.06892502 484.890931,13.5545345 C484.890931,15.1519256 485.293193,16.6385466 485.800389,18.0610516 L422.21358,127.045358 C416.068868,128.333766 411.358302,133.528216 411.358302,140.057713 C411.358302,147.543307 417.427227,153.612247 424.912836,153.612247 C432.39261,153.612247 438.461535,147.543307 438.461535,140.057713 C438.461535,138.553585 438.059273,137.177734 437.610372,135.825196 L501.517821,26.485267 C507.475991,25.0569414 512,19.9499344 512,13.5545345 C512,6.06892502 505.93106,0 498.445465,0" fill="#0C544C"></path>
				<path d="M442.985544,20.9585215 C438.89296,20.9585215 435.581572,17.6412982 435.581572,13.5545345 C435.581572,9.46193528 438.89296,6.15054747 442.985544,6.15054747 C447.072308,6.15054747 450.383696,9.46193528 450.383696,13.5545345 C450.383696,17.6412982 447.072308,20.9585215 442.985544,20.9585215 M369.447094,147.461685 C365.360316,147.461685 362.043107,144.144476 362.043107,140.057713 C362.043107,135.965113 365.360316,132.653726 369.447094,132.653726 C373.539679,132.653726 376.851066,135.965113 376.851066,140.057713 C376.851066,144.144476 373.539679,147.461685 369.447094,147.461685 M442.985544,0 C435.494114,0 429.431009,6.06892502 429.431009,13.5545345 C429.431009,15.1519256 429.833271,16.6385466 430.340483,18.0610516 L366.753673,127.045358 C360.603111,128.333766 355.892545,133.528216 355.892545,140.057713 C355.892545,147.543307 361.961485,153.612247 369.447094,153.612247 C376.932689,153.612247 383.001629,147.543307 383.001629,140.057713 C383.001629,138.553585 382.599367,137.177734 382.150451,135.825196 L446.057915,26.485267 C452.01607,25.0569414 456.540078,19.9499344 456.540078,13.5545345 C456.540078,6.06892502 450.465318,0 442.985544,0" fill="#073551"></path>
				<path d="M341.708388,84.8309874 C347.695705,84.8309874 352.61032,88.7720128 354.405924,94.1530049 C354.854825,95.5055436 355.262922,96.8814093 355.262922,98.3855219 C355.262922,105.865296 349.193982,111.940056 341.708388,111.940056 C334.222778,111.940056 328.153853,105.865296 328.153853,98.3855219 C328.153853,91.8560248 332.864419,86.6615748 339.009131,85.373167 C339.912768,85.1866099 340.752275,84.8309874 341.708388,84.8309874 Z M341.708388,90.9815349 C337.621624,90.9815349 334.304401,94.2929227 334.304401,98.3855219 C334.304401,102.472286 337.621624,105.783673 341.708388,105.783673 C345.795151,105.783673 349.112375,102.472286 349.112375,98.3855219 C349.112375,94.2929227 345.795151,90.9815349 341.708388,90.9815349 Z M341.708388,37.4688213 C347.68987,37.4688213 352.61032,41.4098318 354.405924,46.7908388 C354.854825,48.1433775 355.262922,49.5250639 355.262922,51.0233558 C355.262922,58.5089504 349.193982,64.5778903 341.708388,64.5778903 C334.222778,64.5778903 328.153853,58.5089504 328.153853,51.0233558 C328.153853,44.4938587 332.864419,39.2994087 339.009131,38.0168215 C339.912768,37.8244439 340.752275,37.4688213 341.708388,37.4688213 Z M341.708388,43.6193688 C337.615788,43.6193688 334.304401,46.9365921 334.304401,51.0233558 C334.304401,55.1101196 337.615788,58.427328 341.708388,58.427328 C345.795151,58.427328 349.112375,55.1101196 349.112375,51.0233558 C349.112375,46.9365921 345.795151,43.6193688 341.708388,43.6193688 Z" fill="#073551"></path>
				<path d="M72.7540454,56.8774532 C78.415744,56.9149742 84.3471106,58.2439058 84.3471106,65.4815653 C84.3471106,73.0138066 77.537778,74.1098293 72.5007373,74.1098293 L72.5007373,74.1098293 L42.1852151,74.1098293 C38.7572292,74.1098293 35.3525628,75.905441 32.297691,78.4006417 L32.297691,78.4006417 L21.8971349,87.1921431 C19.1920575,89.3608689 17.2332084,91.1564806 17.2332084,94.561147 L17.2332084,94.561147 L17.2332084,115.92193 C17.2332084,119.326597 19.1920575,121.122208 21.8971349,123.267615 L21.8971349,123.267615 L32.297691,132.059116 C35.3525628,134.577636 38.7572292,136.373248 42.1852151,136.373248 L42.1852151,136.373248 L72.5007373,136.373248 C77.537778,136.373248 84.3471106,137.445951 84.3471106,145.001512 C84.3471106,152.347196 78.2373669,153.606456 72.5007373,153.606456 L44.2622726,153.605664 C34.8956096,153.587723 30.7781536,153.206261 22.969838,146.797124 L22.969838,146.797124 L10.2373187,136.186691 C1.98216876,129.377358 0,124.17708 0,113.589967 L0,113.589967 L0,96.8931102 C0,86.3059971 1.98216876,81.105719 10.2373187,74.2730667 L10.2373187,74.2730667 L22.969838,63.6859536 C30.7781536,57.2768159 34.8956096,56.8953543 44.2622726,56.8774131 Z M169.067331,56.8766209 C176.413015,56.8766209 177.672275,62.7998075 177.672275,68.7229942 L177.672275,68.7229942 L177.672558,141.015024 C177.674204,141.444192 177.682554,141.925941 177.685015,142.444075 L177.685046,142.973738 C177.683772,143.214002 177.680506,143.460386 177.674141,143.71147 L177.662131,144.091443 C177.501424,148.306002 176.346623,153.606456 169.230568,153.606456 C161.884884,153.606456 160.625624,147.496713 160.625624,141.573526 L160.625624,141.573526 L160.625624,138.705211 L146.633844,147.869827 C141.060452,151.46105 136.396526,153.606456 131.732599,153.606456 L131.732599,153.606456 L119.00008,153.606456 C114.149596,153.606456 108.762761,152.160639 103.026132,147.333475 C95.3073334,140.68738 95.4705708,133.318376 95.1207764,123.990523 L95.1207764,123.990523 L93.3251647,69.7956973 C93.1386076,63.5227161 94.0480733,56.8766209 101.930109,56.8766209 C109.299113,56.8766209 110.185259,63.149602 110.371816,68.7229942 L110.371816,68.7229942 L112.167428,121.65856 C112.353985,125.599578 112.517222,130.286824 113.963039,132.782025 C115.408857,135.300545 119.886226,136.373248 124.013801,136.373248 L124.013801,136.373248 L129.750431,136.373248 C131.732599,136.373248 133.528211,135.836896 135.137266,134.764193 L135.137266,134.764193 L160.439067,118.790245 L160.439899,68.461696 C160.477425,62.6268771 161.806695,56.8766209 169.067331,56.8766209 Z M246.418552,56.8766209 C253.064647,56.8766209 258.61472,59.0220271 263.278646,63.6859536 C269.015276,69.4459028 270.997444,75.3690894 270.997444,83.2511252 C270.997444,89.1743119 269.924741,95.2840556 262.555737,95.2840556 C256.282756,95.2840556 253.764236,90.247015 253.764236,84.6969424 C253.764236,81.8286276 253.764236,79.6599018 251.968624,77.1647011 C249.933239,74.2664894 246.113771,74.1178631 242.202812,74.1102413 L236.531028,74.1098293 C233.312918,74.1098293 230.980955,75.7188839 227.926083,78.2374042 L227.926083,78.2374042 L203.883542,98.1523704 L203.883542,141.760083 C203.883542,147.68327 202.624282,153.606456 195.255278,153.606456 C187.909594,153.606456 186.650334,147.68327 186.650334,141.760083 L186.650334,141.760083 L186.650746,69.3547444 C186.671179,63.1627566 187.479756,56.8766209 195.255278,56.8766209 C202.08793,56.8766209 203.883542,62.6132505 203.883542,68.3498801 L203.883542,68.3498801 L203.883542,75.3690894 L217.33897,64.2223051 C222.189454,60.2812872 227.203175,56.8766209 232.59001,56.8766209 L232.59001,56.8766209 Z M290.176818,21.3381905 C299.77526,21.3789176 302.57948,23.2481388 302.57948,33.3704314 L302.57948,33.3704314 L302.57948,136.373248 L315.498556,136.373248 C321.258506,136.373248 327.34493,137.632508 327.34493,145.001512 C327.34493,152.533753 320.535597,153.606456 315.498556,153.606456 L271.507514,153.605764 C266.494624,153.574007 259.881233,152.42459 259.881233,145.001512 C259.881233,137.632508 265.967657,136.373248 271.727606,136.373248 L271.727606,136.373248 L285.369591,136.373248 L285.369591,38.5707094 L271.727606,38.5707094 C266.690566,38.5707094 259.881233,37.4980063 259.881233,29.9424454 C259.881233,22.5967612 265.967657,21.337501 271.727606,21.337501 Z" fill="#073551"></path>
		</g>
</svg>

<svg preserveAspectRatio="xMidYMid" viewBox="0 0 512 154" xmlns="http://www.w3.org/2000/svg">
  <path fill="#0C544C" d="M498.445 20.959a7.403 7.403 0 0 1-7.404-7.404 7.4 7.4 0 0 1 7.404-7.404 7.403 7.403 0 1 1 0 14.808m-73.532 126.503a7.403 7.403 0 0 1-7.404-7.404 7.4 7.4 0 0 1 7.404-7.404 7.398 7.398 0 0 1 7.398 7.404c0 4.086-3.311 7.404-7.398 7.404M498.445 0c-7.485 0-13.554 6.069-13.554 13.555 0 1.597.402 3.084.91 4.506l-63.587 108.984c-6.145 1.289-10.856 6.483-10.856 13.013 0 7.485 6.07 13.554 13.555 13.554 7.48 0 13.549-6.069 13.549-13.554 0-1.504-.403-2.88-.852-4.233l63.908-109.34C507.476 25.057 512 19.95 512 13.555 512 6.069 505.931 0 498.445 0"/>
  <path fill="#073551" d="M442.986 20.959a7.403 7.403 0 0 1-7.404-7.404 7.4 7.4 0 0 1 7.404-7.404 7.398 7.398 0 0 1 7.398 7.404c0 4.086-3.312 7.404-7.398 7.404m-73.539 126.503a7.403 7.403 0 1 1 0-14.808 7.4 7.4 0 0 1 7.404 7.404 7.403 7.403 0 0 1-7.404 7.404M442.986 0c-7.492 0-13.555 6.069-13.555 13.555 0 1.597.402 3.084.91 4.506l-63.587 108.984c-6.15 1.289-10.861 6.483-10.861 13.013 0 7.485 6.068 13.554 13.554 13.554 7.486 0 13.555-6.069 13.555-13.554 0-1.504-.403-2.88-.852-4.233l63.908-109.34c5.958-1.428 10.482-6.535 10.482-12.93C456.54 6.069 450.465 0 442.986 0"/>
  <path fill="#073551" d="M341.708 84.831c5.988 0 10.902 3.941 12.698 9.322.449 1.353.857 2.728.857 4.233 0 7.48-6.069 13.554-13.555 13.554-7.485 0-13.554-6.075-13.554-13.554 0-6.53 4.71-11.724 10.855-13.013.904-.186 1.743-.542 2.7-.542Zm0 6.15a7.403 7.403 0 0 0-7.404 7.405c0 4.086 3.318 7.398 7.404 7.398 4.087 0 7.404-3.312 7.404-7.398a7.403 7.403 0 0 0-7.404-7.404Zm0-53.512c5.982 0 10.902 3.94 12.698 9.322.449 1.352.857 2.734.857 4.232 0 7.486-6.069 13.555-13.555 13.555-7.485 0-13.554-6.069-13.554-13.555 0-6.53 4.71-11.724 10.855-13.006.904-.193 1.743-.548 2.7-.548Zm0 6.15a7.403 7.403 0 0 0-7.404 7.404 7.403 7.403 0 1 0 14.808 0 7.407 7.407 0 0 0-7.404-7.404Z"/>
  <path fill="#073551" d="M72.754 56.877c5.662.038 11.593 1.367 11.593 8.605 0 7.532-6.81 8.628-11.846 8.628H42.185c-3.428 0-6.832 1.795-9.887 4.29l-10.4 8.792c-2.706 2.169-4.665 3.964-4.665 7.37v21.36c0 3.405 1.96 5.2 4.664 7.346l10.4 8.791c3.056 2.519 6.46 4.314 9.888 4.314h30.316c5.037 0 11.846 1.073 11.846 8.629 0 7.345-6.11 8.604-11.846 8.604H44.262c-9.366-.018-13.484-.4-21.292-6.809l-12.733-10.61C1.982 129.377 0 124.177 0 113.59V96.893c0-10.587 1.982-15.787 10.237-22.62L22.97 63.686c7.808-6.41 11.926-6.79 21.292-6.809Zm96.313 0c7.346 0 8.605 5.923 8.605 11.846v72.292c.002.43.01.91.013 1.43v.529c-.001.24-.004.486-.01.737l-.013.38c-.16 4.215-1.315 9.515-8.431 9.515-7.346 0-8.605-6.11-8.605-12.032v-2.869l-13.992 9.165c-5.574 3.591-10.237 5.736-14.901 5.736H119c-4.85 0-10.237-1.445-15.974-6.273-7.719-6.646-7.555-14.015-7.905-23.342l-1.796-54.195c-.186-6.273.723-12.92 8.605-12.92 7.37 0 8.255 6.274 8.442 11.847l1.795 52.936c.187 3.94.35 8.628 1.796 11.123 1.446 2.519 5.923 3.591 10.05 3.591h5.737c1.983 0 3.778-.536 5.387-1.609l25.302-15.974V68.462c.038-5.835 1.368-11.585 8.628-11.585Zm77.352 0c6.646 0 12.196 2.145 16.86 6.809 5.736 5.76 7.718 11.683 7.718 19.565 0 5.923-1.072 12.033-8.441 12.033-6.273 0-8.792-5.037-8.792-10.587 0-2.868 0-5.037-1.795-7.532-2.036-2.899-5.855-3.047-9.766-3.055h-5.672c-3.218 0-5.55 1.609-8.605 4.127l-24.042 19.915v43.608c0 5.923-1.26 11.846-8.629 11.846-7.345 0-8.605-5.923-8.605-11.846V69.355c.021-6.192.83-12.478 8.605-12.478 6.833 0 8.629 5.736 8.629 11.473v7.02l13.455-11.148c4.85-3.94 9.864-7.345 15.251-7.345Zm43.758-35.539c9.598.04 12.402 1.91 12.402 12.032v103.003h12.92c5.76 0 11.846 1.26 11.846 8.629 0 7.532-6.81 8.604-11.846 8.604h-43.991c-5.013-.032-11.627-1.181-11.627-8.604 0-7.37 6.087-8.629 11.847-8.629h13.642V38.571h-13.642c-5.037 0-11.847-1.073-11.847-8.629 0-7.345 6.087-8.604 11.847-8.604Z"/>
</svg>
